X:1
T:Title
%%score { ( 1 2 ) | ( 3 4 ) }
L:1/8
M:4/4
K:Eb
V:1 treble nm="Grand Piano"
V:2 treble 
V:3 bass 
V:4 bass 
V:1
 z4 z2[Q:1/4=94] z G | [GB]3- [GB]/[GB]/ [GB]>[GB] [Ge]>[EG] | [GB]6 [GB]2 | %3
 [DFB]3- [DFB]/[DFB]/ [DFB]>[DFB] [DFA]>[B,DF] |[M:3/4] [B,EG]6 |[M:1/4] E-[EG] | %6
[M:4/4] [GB]3- [GB]/[GB]/ [GB]>[GB] [Ge]>[EG] | [GB]6 [GB]2 | %8
 [Fd]3- [Fd]/[Ec]/ [DB]>[FA] [EG]>[A,DF] |[M:3/4] [G,E]6 |[M:1/4] [EGB]2 | %11
[M:4/4] [EAc]3- [EAc]/[EAc]/ [EAc]>[Ece] [EBd]>[EAc] | [EGB]6 [B,EG]2 | %13
 [FA]3- [FA]/[FA]/ [FA]>[Ac] [GB]>[FA] |[M:3/4] G6 |[M:1/4] z G | %16
[M:4/4] [GB]3- [GB]/[GB]/ [GB]>[GB] [Ge]>[EG] | [GB]6 [GB]2 | %18
 [Fd]3- [Fd]/[Ec]/ [DB]>[FA] [EG]>[DF] |[M:3/4] E6 | [GB]2 [Ge]>[Ge] [Ge]2 | [Bd]2 c>c c2 | %22
 c2 [GB]>G [GB]2 |[M:5/8] [Ac]2 [GB]>[B,EG][B,DF]- |[M:1/4] [B,DF]2 | B2 | %26
[M:3/4] [Ge]>[Ge] [Ge]2 [Bd]2 |[M:7/8] c>c f3 e2 | %28
[M:3/4] d>d d[Ad] [Ac][Ad][Q:1/4=91][Q:1/4=88][Q:1/4=85][Q:1/4=82][Q:1/4=79][Q:1/4=76][Q:1/4=73] | %29
 [Ge]6 |] %30
V:2
 z4 z2 E2 | x8 | x8 | x8 |[M:3/4] x6 |[M:1/4] G, z |[M:4/4] x8 | x8 | x8 |[M:3/4] x6 |[M:1/4] x2 | %11
[M:4/4] x8 | x8 | x8 |[M:3/4] x6 |[M:1/4] E2 |[M:4/4] x8 | x8 | x8 |[M:3/4] x6 | x6 | x6 | x6 | %23
[M:5/8] x5 |[M:1/4] x2 | x2 |[M:3/4] x6 |[M:7/8] x7 |[M:3/4] x6 | x6 |] %30
V:3
 z4 z2 G,B, | [E,E]3- [E,E]/[E,E]/ [E,E]>[E,E] [E,B,]>[E,B,] | [E,E]6 [E,E]2 | %3
 B,,3- B,,/B,,/ B,,>B,, B,,>B,, |[M:3/4] E,6 |[M:1/4] z B, | %6
[M:4/4] [E,E]3- [E,E]/[E,E]/ [E,E]>[E,E] [E,B,]>[E,B,] | [E,E]6 [E,B,]2 | %8
 [B,,B,]3- [B,,B,]/[B,,B,]/ [B,,B,]>[B,,B,] [B,,B,]>B,, |[M:3/4] E,6 |[M:1/4] E,2 | %11
[M:4/4] A,3- A,/A,/ A,>A, A,>A, | E,6 E,2 | %13
 [B,,B,]3- [B,,B,]/[B,,B,]/ [B,,B,]>[B,,B,] [B,,B,]>[B,,B,] |[M:3/4] [E,B,E]6 |[M:1/4] G,B, | %16
[M:4/4] [E,E]3- [E,E]/[E,E]/ [E,E]>[E,E] [E,B,]>[E,B,] | [E,E]6 [E,B,]2 | %18
 [B,,B,]3- [B,,B,]/[B,,B,]/ [B,,B,]>[B,,B,] [B,,B,]>[B,,A,] |[M:3/4] [E,G,]6 | %20
 [E,B,]2 [E,B,]>[E,B,] [E,B,]2 | [G,B,]2[K:treble] [A,EA]>[A,EA] [A,EA]2 | %22
 [A,EA]2[K:bass] [E,E]>[E,E] [E,E]2 |[M:5/8] [E,E]2 [E,E]>E,B,,- |[M:1/4] B,,2 | B,2 | %26
[M:3/4] [E,B,]>[E,B,] [E,B,]2 [G,B,]2 |[M:7/8][K:treble] [A,EA]>[A,EA] [A,CA]3 [A,CA]2 | %28
[M:3/4] [B,A]>[B,A] [B,A][K:bass][B,,B,] [B,,B,][B,,B,] | [E,B,]6 |] %30
V:4
 z4 z2 E,2 | x8 | x8 | x8 |[M:3/4] x6 |[M:1/4] E,2 |[M:4/4] x8 | x8 | x8 |[M:3/4] x6 |[M:1/4] x2 | %11
[M:4/4] x8 | x8 | x8 |[M:3/4] x6 |[M:1/4] E,2 |[M:4/4] x8 | x8 | x8 |[M:3/4] x6 | x6 | %21
 x2[K:treble] x4 | x2[K:bass] x4 |[M:5/8] x5 |[M:1/4] x2 | x2 |[M:3/4] x6 |[M:7/8][K:treble] x7 | %28
[M:3/4] x3[K:bass] x3 | x6 |] %30

